src/layouts/About/articles you.svg

<svg width="395" height="74" viewBox="0 0 395 74" fill="none" xmlns="http://www.w3.org/2000/svg">
<path d="M31.064 58.024C25.9013 58.024 23.0853 55.7653 22.616 51.248C20.0347 55.7653 16.7787 58.024 12.848 58.024C8.91733 58.024 5.77867 56.8507 3.432 54.504C1.144 52.0987 0 48.7547 0 44.472C0 37.784 1.64267 32.5333 4.928 28.72C8.21333 24.9067 12.4667 23 17.688 23C21.9707 23 24.816 25.024 26.224 29.072C26.5173 27.312 26.84 25.552 27.192 23.792C31.5333 23.792 34.76 23.616 36.872 23.264L38.016 23L31.944 56.264C33.704 56.088 35.1707 55.2667 36.344 53.8L37.664 54.856C35.904 56.968 33.704 58.024 31.064 58.024ZM9.944 48.96C9.944 51.6 10.2667 53.448 10.912 54.504C11.616 55.5013 12.672 56 14.08 56C15.488 56 16.9253 55.2373 18.392 53.712C20.328 51.7173 21.8827 49.1947 23.056 46.144C23.232 45.3813 23.5547 43.5627 24.024 40.688C24.552 37.7547 24.992 35.3493 25.344 33.472C25.168 31.2427 24.552 29.3067 23.496 27.664C22.44 26.0213 21.12 25.2 19.536 25.2C16.6613 25.2 14.344 27.7813 12.584 32.944C10.824 38.048 9.944 43.3867 9.944 48.96Z" fill="black"/>
<path d="M43.088 27.168C44.848 25.056 47.048 24 49.688 24C52.3867 24 54.4693 24.6747 55.936 26.024C57.4027 27.3733 58.136 29.28 58.136 31.744V32.272C60.776 26.7573 64.208 24 68.432 24C72.9493 24 75.208 26.3467 75.208 31.04C75.208 32.976 74.5627 35.0293 73.272 37.2C71.9813 39.3707 70.6907 41.4533 69.4 43.448C68.1093 45.384 67.464 47.1147 67.464 48.64H65.352C65.352 46.4693 66.6133 43.536 69.136 39.84C71.6587 36.144 72.92 33.2987 72.92 31.304C72.92 29.2507 72.5093 27.872 71.688 27.168C70.9253 26.4053 69.752 26.024 68.168 26.024C66.6427 26.024 65.1173 26.6987 63.592 28.048C62.1253 29.3973 60.8933 31.0987 59.896 33.152C58.312 36.2027 57.256 38.696 56.728 40.632V40.72L53.56 58.232H43L48.808 25.76C47.048 25.936 45.5813 26.7573 44.408 28.224L43.088 27.168Z" fill="black"/>
<path d="M82.664 23.816L85.04 10.792C89.3813 10.792 92.608 10.616 94.72 10.264L95.864 10C95.0427 14.1067 94.1333 18.712 93.136 23.816H104.048L103.872 25.4H92.872C89.9387 40.536 88.472 49.6587 88.472 52.768C88.472 54.6453 89.4693 55.584 91.464 55.584C93.4587 55.584 95.2773 54.3227 96.92 51.8C98.5627 49.2773 99.736 46.5493 100.44 43.616L102.024 44.144C99.8533 53.4133 95.3653 58.048 88.56 58.048C85.744 58.048 83.3973 57.2853 81.52 55.76C79.6427 54.176 78.704 52.0053 78.704 49.248C78.704 46.432 79.9067 38.4827 82.312 25.4H78L78.176 23.816H82.664Z" fill="black"/>
<path d="M122.048 55.216C120.288 57.328 118.088 58.384 115.448 58.384C112.808 58.384 110.725 57.7093 109.2 56.36C107.733 55.0107 107 53.2507 107 51.08C107 50.3173 107.469 47.12 108.408 41.488L111.312 25.736H107.616L107.792 24.152H111.576C115.917 24.152 119.115 23.976 121.168 23.624L122.4 23.36L116.328 56.624C118.088 56.448 119.555 55.6267 120.728 54.16L122.048 55.216ZM114.304 14.912C113.072 13.68 112.456 12.184 112.456 10.424C112.456 8.664 113.072 7.168 114.304 5.936C115.536 4.64533 117.032 4 118.792 4C120.552 4 122.048 4.64533 123.28 5.936C124.571 7.168 125.216 8.664 125.216 10.424C125.216 12.184 124.571 13.68 123.28 14.912C122.048 16.144 120.552 16.76 118.792 16.76C117.032 16.76 115.536 16.144 114.304 14.912Z" fill="black"/>
<path d="M148.296 38.84C147.064 37.608 146.448 36.112 146.448 34.352C146.448 32.592 147.064 31.096 148.296 29.864C149.528 28.5733 151.024 27.928 152.784 27.928C153.312 27.928 153.987 28.0453 154.808 28.28C153.693 26.2267 151.611 25.2 148.56 25.2C145.509 25.2 142.811 27.136 140.464 31.008C138.117 34.88 136.944 40.6293 136.944 48.256C136.944 50.896 137.531 52.8613 138.704 54.152C139.936 55.384 141.461 56 143.28 56C145.099 56 146.741 55.648 148.208 54.944C149.733 54.24 150.936 53.4187 151.816 52.48C152.696 51.4827 153.459 50.456 154.104 49.4C155.277 47.464 155.864 46.232 155.864 45.704L157.448 46.408C157.272 47.3467 156.744 48.608 155.864 50.192C154.984 51.7173 154.016 52.9787 152.96 53.976C151.904 54.9733 150.349 55.912 148.296 56.792C146.243 57.6133 143.955 58.024 141.432 58.024C136.68 58.024 133.072 56.9093 130.608 54.68C128.203 52.392 127 49.2827 127 45.352C127 38.3707 128.731 32.9147 132.192 28.984C135.712 24.9947 140.464 23 146.448 23C150.496 23 153.605 24.0267 155.776 26.08C157.947 28.1333 159.032 30.832 159.032 34.176C159.032 36.288 158.387 37.9013 157.096 39.016C155.864 40.1307 154.397 40.688 152.696 40.688C150.995 40.688 149.528 40.072 148.296 38.84Z" fill="black"/>
<path d="M178.84 53.856C178.077 54.8533 177.021 55.7627 175.672 56.584C174.381 57.4053 172.68 57.816 170.568 57.816C168.456 57.816 166.667 57.1413 165.2 55.792C163.733 54.4427 163 52.536 163 50.072C163 49.6027 163.059 48.84 163.176 47.784L168.896 16.104C169.952 10.296 171.389 6.16 173.208 3.696C175.085 1.232 177.549 0 180.6 0C182.712 0 184.443 0.791999 185.792 2.376C187.2 3.96 187.904 6.36533 187.904 9.592C187.904 12.8187 186.643 17.424 184.12 23.408C181.656 29.392 180.424 33.7627 180.424 36.52H178.84C178.84 33.4107 180.072 28.9813 182.536 23.232C185 17.424 186.232 12.7893 186.232 9.328C186.232 7.216 185.733 5.39733 184.736 3.872C183.797 2.34666 182.624 1.584 181.216 1.584C181.157 3.10933 180.131 9.97333 178.136 22.176C176.2 34.32 174.264 45.6133 172.328 56.056C173.971 56.056 175.496 55.2053 176.904 53.504C178.312 51.8027 179.309 50.1013 179.896 48.4L180.864 45.76L182.448 46.464C182.272 47.2853 181.803 48.488 181.04 50.072C180.336 51.5973 179.603 52.8587 178.84 53.856Z" fill="black"/>
<path d="M206.096 23C213.547 23 217.272 25.9627 217.272 31.888C217.272 35.584 215.512 38.4 211.992 40.336C208.531 42.2133 203.573 43.1813 197.12 43.24C197.003 45.352 196.944 47.024 196.944 48.256C196.944 50.896 197.531 52.8613 198.704 54.152C199.936 55.384 201.461 56 203.28 56C205.099 56 206.741 55.648 208.208 54.944C209.733 54.24 210.936 53.4187 211.816 52.48C212.696 51.4827 213.459 50.456 214.104 49.4C215.277 47.464 215.864 46.232 215.864 45.704L217.448 46.408C217.272 47.3467 216.744 48.608 215.864 50.192C214.984 51.7173 214.016 52.9787 212.96 53.976C211.904 54.9733 210.349 55.912 208.296 56.792C206.243 57.6133 203.955 58.024 201.432 58.024C196.68 58.024 193.072 56.9093 190.608 54.68C188.203 52.392 187 49.2827 187 45.352C187 38.3707 188.731 32.9147 192.192 28.984C195.653 24.9947 200.288 23 206.096 23ZM215.072 31.888C215.072 29.952 214.485 28.368 213.312 27.136C212.197 25.8453 210.496 25.2 208.208 25.2C205.979 25.2 203.779 26.5493 201.608 29.248C199.496 31.9467 198.088 35.936 197.384 41.216C209.176 41.1573 215.072 38.048 215.072 31.888Z" fill="black"/>
<path d="M230.384 55.784C236.192 55.784 239.096 51.5013 239.096 42.936C239.096 40.824 238.773 38.3307 238.128 35.456C237.541 32.5813 237.189 30.792 237.072 30.088C233.493 33.784 229.475 36.0133 225.016 36.776V34.664C229.24 33.7253 233.2 31.32 236.896 27.448V27.096C236.896 25.688 237.101 24.3093 237.512 22.96C237.923 21.6107 238.333 20.6133 238.744 19.968L239.36 19H241.472C241.472 21.5813 241.883 23.9573 242.704 26.128C243.525 28.24 244.435 29.9707 245.432 31.32C246.429 32.6107 247.339 34.3413 248.16 36.512C248.981 38.624 249.392 40.9707 249.392 43.552C249.392 47.7173 247.808 51.1787 244.64 53.936C241.531 56.6933 237.776 58.072 233.376 58.072C228.976 58.072 225.632 57.0747 223.344 55.08C221.115 53.0853 220 50.7973 220 48.216C220 45.576 220.645 43.6987 221.936 42.584C223.227 41.4107 224.752 40.824 226.512 40.824C228.272 40.824 229.709 41.4107 230.824 42.584C231.997 43.6987 232.584 45.1653 232.584 46.984C232.584 48.744 232.027 50.24 230.912 51.472C229.797 52.704 228.36 53.32 226.6 53.32C225.837 53.32 225.045 53.2027 224.224 52.968C225.515 54.8453 227.568 55.784 230.384 55.784Z" fill="black"/>
<path d="M277.808 24.76C276.4 24.76 274.933 25.5813 273.408 27.224L272.088 26.168C272.499 25.3467 273.408 24.6133 274.816 23.968C276.224 23.3227 277.779 23 279.48 23C284.819 23 287.488 25.4053 287.488 30.216C287.488 32.2693 286.931 35.6427 285.816 40.336C284.701 44.9707 284.144 48.1093 284.144 49.752C284.144 52.568 285.317 53.976 287.664 53.976C289.6 53.976 291.477 52.656 293.296 50.016C295.173 47.376 296.699 43.8267 297.872 39.368L300.776 23.792C305.117 23.792 308.285 23.616 310.28 23.264L311.424 23L305.88 54.152C304.824 60.1947 302.36 64.9173 298.488 68.32C294.675 71.7227 289.717 73.424 283.616 73.424C279.92 73.424 277.045 72.7787 274.992 71.488C272.997 70.256 272 68.6133 272 66.56C272 64.5653 272.616 62.952 273.848 61.72C275.08 60.5467 276.811 59.96 279.04 59.96C281.328 59.96 283.44 60.312 285.376 61.016C287.312 61.7787 288.72 62.2187 289.6 62.336L289.424 63.92C288.427 63.8027 286.989 63.392 285.112 62.688C283.235 61.984 281.357 61.632 279.48 61.632C277.661 61.632 276.253 62.0427 275.256 62.864C274.317 63.6853 273.848 64.8587 273.848 66.384C273.848 67.968 274.699 69.2293 276.4 70.168C278.101 71.1653 280.213 71.664 282.736 71.664C288.837 71.664 292.592 67.9973 294 60.664L296.2 48.52C293.736 53.9173 290.011 56.616 285.024 56.616C281.621 56.616 278.981 55.648 277.104 53.712C275.285 51.776 274.376 49.048 274.376 45.528C274.376 43.7093 274.904 40.4533 275.96 35.76C277.075 31.008 277.691 27.3413 277.808 24.76Z" fill="black"/>
<path d="M329.816 58.024C325.299 58.024 321.867 56.9093 319.52 54.68C317.173 52.392 316 49.5467 316 46.144C316 42.6827 316.293 39.7493 316.88 37.344C317.525 34.88 318.552 32.5333 319.96 30.304C321.368 28.016 323.48 26.2267 326.296 24.936C329.171 23.6453 332.72 23 336.944 23C341.227 23 344.541 24.144 346.888 26.432C349.293 28.6613 350.496 31.7413 350.496 35.672C350.496 42.36 348.707 47.7573 345.128 51.864C341.608 55.9707 336.504 58.024 329.816 58.024ZM325.944 48.96C325.944 53.6533 327.293 56 329.992 56C332.749 56 335.184 53.6533 337.296 48.96C339.467 44.208 340.552 38.576 340.552 32.064C340.552 27.136 339.203 24.672 336.504 24.672C333.864 24.672 331.429 26.9307 329.2 31.448C327.029 35.9067 325.944 41.744 325.944 48.96Z" fill="black"/>
<path d="M360.72 24.76C359.312 24.76 357.845 25.5813 356.32 27.224L355 26.168C355.411 25.3467 356.32 24.6133 357.728 23.968C359.136 23.3227 360.691 23 362.392 23C367.731 23 370.4 25.4053 370.4 30.216C370.4 32.2693 369.872 35.936 368.816 41.216C367.76 46.496 367.232 49.9573 367.232 51.6C367.232 54.1227 368.435 55.384 370.84 55.384C372.541 55.384 374.184 54.3867 375.768 52.392C377.411 50.3973 378.819 47.64 379.992 44.12L383.688 23.792C388.029 23.792 391.197 23.616 393.192 23.264L394.336 23L388.44 56.264C390.2 56.088 391.667 55.2667 392.84 53.8L394.16 54.856C392.4 56.968 390.2 58.024 387.56 58.024C384.92 58.024 382.867 57.3787 381.4 56.088C379.933 54.7973 379.171 52.9787 379.112 50.632C376.648 55.56 373.011 58.024 368.2 58.024C364.739 58.024 362.04 57.056 360.104 55.12C358.168 53.1253 357.2 50.3973 357.2 46.936C357.2 45.1173 357.757 41.6267 358.872 36.464C359.987 31.2427 360.603 27.3413 360.72 24.76Z" fill="black"/>
</svg>

<svg xmlns="http://www.w3.org/2000/svg" fill="none" viewBox="0 0 395 74">
  <path fill="#000" d="M31.064 58.024c-5.163 0-7.979-2.259-8.448-6.776-2.581 4.517-5.837 6.776-9.768 6.776-3.93 0-7.07-1.173-9.416-3.52C1.144 52.099 0 48.754 0 44.472c0-6.688 1.643-11.939 4.928-15.752C8.213 24.907 12.467 23 17.688 23c4.283 0 7.128 2.024 8.536 6.072.293-1.76.616-3.52.968-5.28 4.341 0 7.568-.176 9.68-.528L38.016 23l-6.072 33.264c1.76-.176 3.227-.997 4.4-2.464l1.32 1.056c-1.76 2.112-3.96 3.168-6.6 3.168ZM9.944 48.96c0 2.64.323 4.488.968 5.544.704.997 1.76 1.496 3.168 1.496 1.408 0 2.845-.763 4.312-2.288 1.936-1.995 3.49-4.517 4.664-7.568.176-.763.499-2.581.968-5.456.528-2.933.968-5.339 1.32-7.216-.176-2.23-.792-4.165-1.848-5.808-1.056-1.643-2.376-2.464-3.96-2.464-2.875 0-5.192 2.581-6.952 7.744-1.76 5.104-2.64 10.443-2.64 16.016Z"/>
  <path fill="#000" d="M43.088 27.168c1.76-2.112 3.96-3.168 6.6-3.168 2.699 0 4.781.675 6.248 2.024 1.467 1.35 2.2 3.256 2.2 5.72v.528C60.776 26.757 64.208 24 68.432 24c4.517 0 6.776 2.347 6.776 7.04 0 1.936-.645 3.99-1.936 6.16a194.231 194.231 0 0 1-3.872 6.248c-1.29 1.936-1.936 3.667-1.936 5.192h-2.112c0-2.17 1.261-5.104 3.784-8.8 2.523-3.696 3.784-6.541 3.784-8.536 0-2.053-.41-3.432-1.232-4.136-.763-.763-1.936-1.144-3.52-1.144-1.525 0-3.05.675-4.576 2.024-1.467 1.35-2.699 3.05-3.696 5.104-1.584 3.05-2.64 5.544-3.168 7.48v.088L53.56 58.232H43l5.808-32.472c-1.76.176-3.227.997-4.4 2.464l-1.32-1.056Z"/>
  <path fill="#000" d="m82.664 23.816 2.376-13.024c4.341 0 7.568-.176 9.68-.528L95.864 10c-.821 4.107-1.73 8.712-2.728 13.816h10.912l-.176 1.584h-11c-2.933 15.136-4.4 24.259-4.4 27.368 0 1.877.997 2.816 2.992 2.816s3.813-1.261 5.456-3.784a26.014 26.014 0 0 0 3.52-8.184l1.584.528c-2.17 9.27-6.659 13.904-13.464 13.904-2.816 0-5.163-.763-7.04-2.288-1.877-1.584-2.816-3.755-2.816-6.512 0-2.816 1.203-10.765 3.608-23.848H78l.176-1.584h4.488Z"/>
  <path fill="#000" d="M122.048 55.216c-1.76 2.112-3.96 3.168-6.6 3.168-2.64 0-4.723-.675-6.248-2.024-1.467-1.35-2.2-3.11-2.2-5.28 0-.763.469-3.96 1.408-9.592l2.904-15.752h-3.696l.176-1.584h3.784c4.341 0 7.539-.176 9.592-.528l1.232-.264-6.072 33.264c1.76-.176 3.227-.997 4.4-2.464l1.32 1.056Zm-7.744-40.304c-1.232-1.232-1.848-2.728-1.848-4.488 0-1.76.616-3.256 1.848-4.488C115.536 4.646 117.032 4 118.792 4c1.76 0 3.256.645 4.488 1.936 1.291 1.232 1.936 2.728 1.936 4.488 0 1.76-.645 3.256-1.936 4.488-1.232 1.232-2.728 1.848-4.488 1.848-1.76 0-3.256-.616-4.488-1.848Z"/>
  <path fill="#000" d="M148.296 38.84c-1.232-1.232-1.848-2.728-1.848-4.488 0-1.76.616-3.256 1.848-4.488 1.232-1.29 2.728-1.936 4.488-1.936.528 0 1.203.117 2.024.352-1.115-2.053-3.197-3.08-6.248-3.08s-5.749 1.936-8.096 5.808c-2.347 3.872-3.52 9.621-3.52 17.248 0 2.64.587 4.605 1.76 5.896 1.232 1.232 2.757 1.848 4.576 1.848 1.819 0 3.461-.352 4.928-1.056 1.525-.704 2.728-1.525 3.608-2.464a21.976 21.976 0 0 0 2.288-3.08c1.173-1.936 1.76-3.168 1.76-3.696l1.584.704c-.176.939-.704 2.2-1.584 3.784-.88 1.525-1.848 2.787-2.904 3.784-1.056.997-2.611 1.936-4.664 2.816-2.053.821-4.341 1.232-6.864 1.232-4.752 0-8.36-1.115-10.824-3.344-2.405-2.288-3.608-5.397-3.608-9.328 0-6.981 1.731-12.437 5.192-16.368 3.52-3.99 8.272-5.984 14.256-5.984 4.048 0 7.157 1.027 9.328 3.08 2.171 2.053 3.256 4.752 3.256 8.096 0 2.112-.645 3.725-1.936 4.84-1.232 1.115-2.699 1.672-4.4 1.672-1.701 0-3.168-.616-4.4-1.848Z"/>
  <path fill="#000" d="M178.84 53.856c-.763.997-1.819 1.907-3.168 2.728-1.291.821-2.992 1.232-5.104 1.232s-3.901-.675-5.368-2.024c-1.467-1.35-2.2-3.256-2.2-5.72 0-.47.059-1.232.176-2.288l5.72-31.68c1.056-5.808 2.493-9.944 4.312-12.408C175.085 1.232 177.549 0 180.6 0c2.112 0 3.843.792 5.192 2.376 1.408 1.584 2.112 3.99 2.112 7.216 0 3.227-1.261 7.832-3.784 13.816-2.464 5.984-3.696 10.355-3.696 13.112h-1.584c0-3.11 1.232-7.539 3.696-13.288 2.464-5.808 3.696-10.443 3.696-13.904 0-2.112-.499-3.93-1.496-5.456-.939-1.525-2.112-2.288-3.52-2.288-.059 1.525-1.085 8.39-3.08 20.592-1.936 12.144-3.872 23.437-5.808 33.88 1.643 0 3.168-.85 4.576-2.552 1.408-1.701 2.405-3.403 2.992-5.104l.968-2.64 1.584.704c-.176.821-.645 2.024-1.408 3.608-.704 1.525-1.437 2.787-2.2 3.784Z"/>
  <path fill="#000" d="M206.096 23c7.451 0 11.176 2.963 11.176 8.888 0 3.696-1.76 6.512-5.28 8.448-3.461 1.877-8.419 2.845-14.872 2.904-.117 2.112-.176 3.784-.176 5.016 0 2.64.587 4.605 1.76 5.896 1.232 1.232 2.757 1.848 4.576 1.848 1.819 0 3.461-.352 4.928-1.056 1.525-.704 2.728-1.525 3.608-2.464a21.976 21.976 0 0 0 2.288-3.08c1.173-1.936 1.76-3.168 1.76-3.696l1.584.704c-.176.939-.704 2.2-1.584 3.784-.88 1.525-1.848 2.787-2.904 3.784-1.056.997-2.611 1.936-4.664 2.816-2.053.821-4.341 1.232-6.864 1.232-4.752 0-8.36-1.115-10.824-3.344-2.405-2.288-3.608-5.397-3.608-9.328 0-6.981 1.731-12.437 5.192-16.368 3.461-3.99 8.096-5.984 13.904-5.984Zm8.976 8.888c0-1.936-.587-3.52-1.76-4.752-1.115-1.29-2.816-1.936-5.104-1.936-2.229 0-4.429 1.35-6.6 4.048-2.112 2.699-3.52 6.688-4.224 11.968 11.792-.059 17.688-3.168 17.688-9.328Z"/>
  <path fill="#000" d="M230.384 55.784c5.808 0 8.712-4.283 8.712-12.848 0-2.112-.323-4.605-.968-7.48-.587-2.875-.939-4.664-1.056-5.368-3.579 3.696-7.597 5.925-12.056 6.688v-2.112c4.224-.939 8.184-3.344 11.88-7.216v-.352c0-1.408.205-2.787.616-4.136.411-1.35.821-2.347 1.232-2.992l.616-.968h2.112c0 2.581.411 4.957 1.232 7.128.821 2.112 1.731 3.843 2.728 5.192.997 1.29 1.907 3.021 2.728 5.192.821 2.112 1.232 4.459 1.232 7.04 0 4.165-1.584 7.627-4.752 10.384-3.109 2.757-6.864 4.136-11.264 4.136-4.4 0-7.744-.997-10.032-2.992-2.229-1.995-3.344-4.283-3.344-6.864 0-2.64.645-4.517 1.936-5.632 1.291-1.173 2.816-1.76 4.576-1.76 1.76 0 3.197.587 4.312 1.76 1.173 1.115 1.76 2.581 1.76 4.4 0 1.76-.557 3.256-1.672 4.488-1.115 1.232-2.552 1.848-4.312 1.848a8.633 8.633 0 0 1-2.376-.352c1.291 1.877 3.344 2.816 6.16 2.816Z"/>
  <path fill="#000" d="M277.808 24.76c-1.408 0-2.875.821-4.4 2.464l-1.32-1.056c.411-.821 1.32-1.555 2.728-2.2 1.408-.645 2.963-.968 4.664-.968 5.339 0 8.008 2.405 8.008 7.216 0 2.053-.557 5.427-1.672 10.12-1.115 4.635-1.672 7.773-1.672 9.416 0 2.816 1.173 4.224 3.52 4.224 1.936 0 3.813-1.32 5.632-3.96 1.877-2.64 3.403-6.19 4.576-10.648l2.904-15.576c4.341 0 7.509-.176 9.504-.528l1.144-.264-5.544 31.152c-1.056 6.043-3.52 10.765-7.392 14.168-3.813 3.403-8.771 5.104-14.872 5.104-3.696 0-6.571-.645-8.624-1.936-1.995-1.232-2.992-2.875-2.992-4.928 0-1.995.616-3.608 1.848-4.84 1.232-1.173 2.963-1.76 5.192-1.76 2.288 0 4.4.352 6.336 1.056 1.936.763 3.344 1.203 4.224 1.32l-.176 1.584c-.997-.117-2.435-.528-4.312-1.232-1.877-.704-3.755-1.056-5.632-1.056-1.819 0-3.227.41-4.224 1.232-.939.821-1.408 1.995-1.408 3.52 0 1.584.851 2.845 2.552 3.784 1.701.997 3.813 1.496 6.336 1.496 6.101 0 9.856-3.667 11.264-11l2.2-12.144c-2.464 5.397-6.189 8.096-11.176 8.096-3.403 0-6.043-.968-7.92-2.904-1.819-1.936-2.728-4.664-2.728-8.184 0-1.819.528-5.075 1.584-9.768 1.115-4.752 1.731-8.419 1.848-11Z"/>
  <path fill="#000" d="M329.816 58.024c-4.517 0-7.949-1.115-10.296-3.344-2.347-2.288-3.52-5.133-3.52-8.536 0-3.461.293-6.395.88-8.8a24.964 24.964 0 0 1 3.08-7.04c1.408-2.288 3.52-4.077 6.336-5.368 2.875-1.29 6.424-1.936 10.648-1.936 4.283 0 7.597 1.144 9.944 3.432 2.405 2.23 3.608 5.31 3.608 9.24 0 6.688-1.789 12.085-5.368 16.192-3.52 4.107-8.624 6.16-15.312 6.16Zm-3.872-9.064c0 4.693 1.349 7.04 4.048 7.04 2.757 0 5.192-2.347 7.304-7.04 2.171-4.752 3.256-10.384 3.256-16.896 0-4.928-1.349-7.392-4.048-7.392-2.64 0-5.075 2.259-7.304 6.776-2.171 4.459-3.256 10.296-3.256 17.512Z"/>
  <path fill="#000" d="M360.72 24.76c-1.408 0-2.875.821-4.4 2.464L355 26.168c.411-.821 1.32-1.555 2.728-2.2 1.408-.645 2.963-.968 4.664-.968 5.339 0 8.008 2.405 8.008 7.216 0 2.053-.528 5.72-1.584 11s-1.584 8.741-1.584 10.384c0 2.523 1.203 3.784 3.608 3.784 1.701 0 3.344-.997 4.928-2.992 1.643-1.995 3.051-4.752 4.224-8.272l3.696-20.328c4.341 0 7.509-.176 9.504-.528l1.144-.264-5.896 33.264c1.76-.176 3.227-.997 4.4-2.464l1.32 1.056c-1.76 2.112-3.96 3.168-6.6 3.168-2.64 0-4.693-.645-6.16-1.936-1.467-1.29-2.229-3.11-2.288-5.456-2.464 4.928-6.101 7.392-10.912 7.392-3.461 0-6.16-.968-8.096-2.904-1.936-1.995-2.904-4.723-2.904-8.184 0-1.819.557-5.31 1.672-10.472 1.115-5.221 1.731-9.123 1.848-11.704Z"/>
</svg>
